svgs/sharp-regular/transporter-2.svg

<svg xmlns="http://www.w3.org/2000/svg" viewBox="0 0 512 512"><!--! Font Awesome Pro 6.4.2 by @fontawesome - https://fontawesome.com License - https://fontawesome.com/license (Commercial License) Copyright 2023 Fonticons, Inc. --><path d="M64 32L48 0 32 32 0 48 32 64 48 96 64 64 96 48 64 32zM480 352l-16-32-16 32-32 16 32 16 16 32 16-32 32-16-32-16zM120 464H96v48h24H392h24V464H392 120zM256 96a48 48 0 1 0 0-96 48 48 0 1 0 0 96zm-51.1 32H192.9l-7.2 9.7L121.4 224h59.8H192h48V176h32v48h48 10.7 59.8l-64.2-86.3-7.2-9.7H307.1 204.9zM112 256H96v32h16H400h16V256H400 112zm64 64H160v32h16H336h16V320H336 176zm0 64H160v32h16H336h16V384H336 176z"/></svg>

<svg xmlns="http://www.w3.org/2000/svg" viewBox="0 0 512 512"><!--! Font Awesome Pro 6.6.0 by @fontawesome - https://fontawesome.com License - https://fontawesome.com/license (Commercial License) Copyright 2024 Fonticons, Inc. --><path d="M64 32L48 0 32 32 0 48 32 64 48 96 64 64 96 48 64 32zM480 352l-16-32-16 32-32 16 32 16 16 32 16-32 32-16-32-16zM120 464l-24 0 0 48 24 0 272 0 24 0 0-48-24 0-272 0zM256 96a48 48 0 1 0 0-96 48 48 0 1 0 0 96zm-51.1 32l-12.1 0-7.2 9.7L121.4 224l59.8 0 10.7 0 48 0 0-48 32 0 0 48 48 0 10.7 0 59.8 0-64.2-86.3-7.2-9.7-12.1 0-102.2 0zM112 256l-16 0 0 32 16 0 288 0 16 0 0-32-16 0-288 0zm64 64l-16 0 0 32 16 0 160 0 16 0 0-32-16 0-160 0zm0 64l-16 0 0 32 16 0 160 0 16 0 0-32-16 0-160 0z"/></svg>
